dist/static/images/common/trust-us/done-3.svg

<svg id="Layer_1" data-name="Layer 1" xmlns="http://www.w3.org/2000/svg" fill="#fc8f13" viewBox="0 0 122.88 116.87"><path d="M61.37 8.24L80.43 0l10.45 17.78 20.27 4.54-2 20.53 13.73 15.58-13.68 15.44 2 20.68L91 99l-10.57 17.87-18.92-8.25-19.06 8.25L32 99.08l-20.27-4.53 2-20.54L0 58.43 13.68 43l-1.95-20.68 20.15-4.45L42.45 0l18.92 8.24zM37.44 64.55c-6.07-6.53 3.25-16.26 10-10.1 2.38 2.17 5.84 5.34 8.24 7.49l18.5-22.76c6.44-6.65 16.61 3.12 10.25 9.82L61.2 76.72a7.13 7.13 0 01-9.91.44c-3.94-3.75-9.72-9.16-13.85-12.61z" fill-rule="evenodd"/></svg>

<svg id="Layer_1" data-name="Layer 1" xmlns="http://www.w3.org/2000/svg" fill="#fc8f13" viewBox="0 0 122.88 116.87"><defs><style>.cls-1{fill-rule:evenodd;}</style></defs><title>verify</title><path class="cls-1" d="M61.37,8.24,80.43,0,90.88,17.78l20.27,4.54-2,20.53,13.73,15.58L109.2,73.87l2,20.68L91,99,80.43,116.87l-18.92-8.25-19.06,8.25L32,99.08,11.73,94.55l2-20.54L0,58.43,13.68,43,11.73,22.32l20.15-4.45L42.45,0,61.37,8.24ZM37.44,64.55c-6.07-6.53,3.25-16.26,10-10.1,2.38,2.17,5.84,5.34,8.24,7.49L74.18,39.18C80.62,32.53,90.79,42.3,84.43,49L61.2,76.72a7.13,7.13,0,0,1-9.91.44C47.35,73.41,41.57,68,37.44,64.55Z"/></svg>
